!! 00000] TT[WS
!!!OTL: Maozhuxi hezan xinlianxin
!!!ARE: Asia, China, Shanxi Ninwu
!! Ethnic Group: Han
!! WI, 278 (1)
!!!SCT: J0331
!!!YEM: Copyright 1995, estate of Helmut Schaffrath.
**kern
*ICvox
*Ivox
*M2/4
*k[b-e-]
*B-:
{8.bb-
16ddd
4ccc
=1
8ff
8bb-
8gg
8ff
=2
8ee-
8ff
8bb-
8dd
=3
2cc}
=4
{8.bb-
16ddd
4ccc
=5
8ff
8bb-
8gg
8ff
=6
16gg
16bb-
4.ccc
=7
8ff
4.bb-
=8
2ff}
==
!!!AGN: Xiaodiao. Xinminge, Xuanchuan
!! Neue Text. Politische Liede
!!!ONB: ESAC (Essen Associative Code) Database: CHINA
!!!AMT: simple duple
!!!AIN: vox
!!!EED: Helmut Schaffrath
!!!EEV: 1.0
*-
